img/room_card-item.svg

<svg width="20" height="20" viewBox="0 0 20 20" fill="none" xmlns="http://www.w3.org/2000/svg">
<path d="M17.5819 9.2475V5.73937C17.5819 4.77338 16.788 3.98749 15.8122 3.98749L4.18755 3.9873C3.21174 3.9873 2.41787 4.77319 2.41787 5.73918V9.24804C1.36097 9.73666 0.625 10.7963 0.625 12.0255V15.2208C0.625 15.4442 0.807894 15.625 1.03333 15.625H3.36443C3.58987 15.625 3.77276 15.4442 3.77276 15.2208V14.9174H16.2268V15.2208C16.2268 15.4442 16.4097 15.625 16.6352 15.625L18.9667 15.6252C19.1921 15.6252 19.375 15.4444 19.375 15.221V12.0253C19.375 10.7959 18.639 9.73647 17.5819 9.24746L17.5819 9.2475ZM3.2345 5.73937C3.2345 5.21912 3.66202 4.7959 4.18755 4.7959H15.8122C16.3377 4.7959 16.7652 5.21912 16.7652 5.73937V9.00045C16.6057 8.97507 16.4431 8.95871 16.2767 8.95871H15.6538V7.07895C15.6538 6.5587 15.2263 6.13548 14.7008 6.13548H11.4859C10.9604 6.13548 10.5329 6.5587 10.5329 7.07895V8.95871H9.46665V7.07895C9.46665 6.5587 9.03913 6.13548 8.51359 6.13548H5.29877C4.77323 6.13548 4.34572 6.5587 4.34572 7.07895V8.95871H3.72333C3.55676 8.95871 3.39419 8.97544 3.23464 9.00045L3.2345 5.73937ZM14.8363 8.95833H11.3493V7.07857C11.3493 7.00543 11.4116 6.94377 11.4854 6.94377H14.7003C14.7741 6.94377 14.8364 7.00543 14.8364 7.07857L14.8363 8.95833ZM8.64934 8.95833H5.16215V7.07857C5.16215 7.00543 5.22444 6.94377 5.29832 6.94377H8.51353C8.58741 6.94377 8.64971 7.00543 8.64971 7.07857V8.95833H8.64934ZM3.77224 14.1084V13.452H16.2263V14.1084H3.77224ZM18.5581 14.8162H17.0435V13.0478C17.0435 12.8246 16.8606 12.6436 16.6352 12.6436H3.3643C3.13886 12.6436 2.95596 12.8246 2.95596 13.0478V14.8162H1.44154V12.0252C1.44154 10.7796 2.46504 9.76679 3.72329 9.76679H16.2766C17.5348 9.76679 18.5583 10.7796 18.5583 12.0252L18.5581 14.8162Z" fill="#FC6733"/>
</svg>

<svg width="20" height="20" viewBox="0 0 20 20" fill="none" xmlns="http://www.w3.org/2000/svg"><path d="M17.582 9.248V5.739c0-.966-.794-1.752-1.77-1.752H4.188c-.976 0-1.77.786-1.77 1.752v3.509a3.066 3.066 0 0 0-1.793 2.777v3.196c0 .223.183.404.408.404h2.331c.226 0 .409-.18.409-.404v-.304h12.454v.304c0 .223.183.404.408.404h2.332c.225 0 .408-.18.408-.404v-3.196c0-1.23-.736-2.289-1.793-2.778zM3.234 5.739a.95.95 0 0 1 .954-.943h11.624a.95.95 0 0 1 .953.943V9a3.101 3.101 0 0 0-.488-.041h-.623v-1.88a.95.95 0 0 0-.953-.944h-3.215a.95.95 0 0 0-.953.944v1.88H9.467v-1.88a.95.95 0 0 0-.953-.944H5.299a.95.95 0 0 0-.953.944v1.88h-.623A3.14 3.14 0 0 0 3.235 9V5.74zm11.602 3.22H11.35v-1.88c0-.074.063-.135.136-.135H14.7c.074 0 .136.061.136.135v1.88zm-6.187 0H5.162v-1.88c0-.074.062-.135.136-.135h3.216c.073 0 .136.061.136.135v1.88zm-4.877 5.15v-.657h12.454v.656H3.772zm14.786.707h-1.514v-1.768a.406.406 0 0 0-.409-.404H3.365a.406.406 0 0 0-.409.404v1.768H1.442v-2.79c0-1.246 1.023-2.26 2.281-2.26h12.554c1.258 0 2.281 1.014 2.281 2.26v2.79z" fill="#FC6733"/></svg>
